X:1
T:Lies Cost Nothing - Will Atkinson Remix
T:Lies Cost Nothing - Will Atkinson Remix
T:Zachary Torrevillas Piano Arrangement
T:John O'Callaghan, Clare Stagg, Will Atkinson
C:John O'Callaghan, Clare Stagg, Will Atkinson
%%score { 1 | 2 }
L:1/8
Q:1/4=138
M:4/4
K:F
V:1 treble nm="Piano" snm="Pno."
V:2 bass 
V:1
 [CEA]8 | [CEG]8 | [=B,DG]8 | [=B,DG]4 [_B,DG]4 :| z4 (A3 c- | c4 e3 d- | d8) | z8 | z4 (A3 c- | %9
 c4 e3 d- | d4) z (e2 e | d4) z (e2 e | d4) (A3 c- | c4 e3 d- | d8) | z8 | z4 (A3 c- | c4 e3 e- | %18
 e d7) | z8 |: A,EA,E A,EA,E | CGCG CGCA | G,DG,D G,DG,D | G,DG,D G,DG,E | A,EA,E A,EA,E | %25
 CGCG CGCA | G,DG,D G,DG,D |1 G,DG,D G,DG,E :|2 G,DG,D G,DG,E || z4 (A3 c- | c4 e3 d- | d8) | z8 | %33
 z4 (A3 c- | c4 e3 e | d6) (c=B- | B=B/A/ G6) | z4 (A3 c- | c4 c2 de | g3 d- d4) | z8 | %41
 z4 (A2 =Bc- | c4 d2 eg) | z2 (g3 f/e/ d2) | z7 (G ||[K:C] A4 c4 | a3 g- g e3- | e2 d c2 d-dd-) | %48
 d2 z2 z2 (G2 | A4 c4 | a4) z (g3 | e3 c- cd-dd- | d2) z2 z2 (G2- | G A3 c4 | a3 g- g4) | %55
 (e3 c- cd d2) | z7 (G | A3 A- AB c2- | c3 c- cccB- | B8) | z7 (G | A3 A- AB c2- | c3 c- cccB- | %63
 B8) | z8 || cccA BggA | cccA BggA | cccA BggA | cccA BggA | cccA BggA | cccA BggA | cccA BggA | %72
 cccA BggA | cccA BggA | cccA BggA | cccA BggA | cccA BggA | cccA BggA | cccA BggA | cccA BggA | %80
 cccA Bgg(G | A4 c4 | a3 g- g e3- | e2 d c2 d-dd- | d2) z2 z2 (G2 | A4 c4 | a4) z (g3 | %87
 e3 c- cd-dd- | d2) z2 z2 (G2- | G A3 c4 | a3 g- g4) | (e3 c- cd d2) | z7 (G | A3 A- AB c2- | %94
 c3 c- cccB- | B8) | z7 (G |: A3 A- AB c2- | c3 c- cccB- | B8) | z7 (G | A3 A- AB c2- | %102
 c3 c- cccB- | B8) |1 z7 G :|2 z8 || CCCA, B,GGA, | CCCA, B,GGA, | CCCA, B,GGA, | CCCA, B,GGA, | %110
 CCCA, B,GGA, | CCCA, B,GGA, | CCCA, B,GGA, | CCCA, B,GGA, |: %114
 [cc'][cc'][cc'][Aa] [Bb][gg'][gg'][Aa] | [cc'][cc'][cc'][Aa] [Bb][gg'][gg'][Aa] | %116
 [cc'][cc'][cc'][Aa] [Bb][gg'][gg'][Aa] | [cc'][cc'][cc'][Aa] [Bb][gg'][gg'][Aa] | %118
 [cc'][cc'][cc'][Aa] [Bb][gg'][gg'][Aa] | [cc'][cc'][cc'][Aa] [Bb][gg'][gg'][Aa] | %120
 [cc'][cc'][cc'][Aa] [Bb][gg'][gg'][Aa] | [ee'][ee'][ee'][Bb] [cc'][gg'][gg'][Bb] :: %122
 [cc'][cc'][cc'][Aa] [Bb][gg'][gg'][Aa] | [cc'][cc'][cc'][Aa] [Bb][gg'][gg'][Aa] | %124
 [cc'][cc'][cc'][Aa] [Bb][gg'][gg'][Aa] | [cc'][cc'][cc'][Aa] [Bb][gg'][gg'][Aa] | %126
 [cc'][cc'][cc'][Aa] [Bb][gg'][gg'][Aa] | [cc'][cc'][cc'][Aa] [Bb][gg'][gg'][Aa] | %128
 [cc'][cc'][cc'][Aa] [Bb][gg'][gg'][Aa] | [ee'][ee'][ee'][Bb] [cc'][gg'][gg'][Bb] :| A4 c4 | %131
 a3 g- g e3- | e2 d c2 c-cg- | g2 z2 z2 (G2 | A4 c4 | a4) z (g3 | e3 c- cg-gg- | g2) z2 z2 (G2- | %138
 G A3 c4 | a3 g- g4) | (e3 c- cd d2) | z7 (G | A3 A- AB c2- | c3 c- cccB- | B8) | z8 | z8 | z8 | %148
 z8 |] %149
V:2
 A,,A,A,,A, A,,A,A,,A, | C,CC,C C,CC,C | G,,G,G,,G, G,,G,G,,G, | G,,G,G,,G, B,,B,B,,B, :| %4
 A,,A,A,,A, A,,A,A,,A, | C,CC,C C,CC,C | G,,G,G,,G, G,,G,G,,G, | G,,G,G,,G, B,,B,B,,B, | %8
 A,,A,A,,A, A,,A,A,,A, | C,CC,C C,CC,C | G,,G,G,,G, G,,G,G,,G, | D,DD,D D,DD,D | %12
 A,,A,A,,A, A,,A,A,,A, | C,CC,C C,CC,C | G,,G,G,,G, G,,G,G,,G, | G,,G,G,,G, B,,B,B,,B, | %16
 A,,A,A,,A, A,,A,A,,A, | C,CC,C C,CC,C | G,,G,G,,G, G,,G,G,,G, | D,DD,D D,DD,D |: %20
 A,,A,A,,A, A,,A,A,,A, | C,CC,C C,CC,C | G,,G,G,,G, G,,G,G,,G, | G,,G,G,,G, B,,B,B,,B, | %24
 A,,A,A,,A, A,,A,A,,A, | C,CC,C C,CC,C | G,,G,G,,G, G,,G,G,,G, |1 D,D,D,D, D,D,D,D, :|2 [G,,D,]8 || %29
 A,,A,A,,A, A,,A,A,,A, | C,CC,C C,CC,C | G,,G,G,,G, G,,G,G,,G, | G,,G,G,,G, B,,B,B,,B, | %33
 A,,A,A,,A, A,,A,A,,A, | C,CC,C C,CC,C | G,,G,G,,G, G,,G,G,,G, | D2 D2 D2 D2 | %37
 A,,A,A,,A, A,,A,A,,A, | C,CC,C C,CC,C | G,,G,G,,G, G,,G,G,,G, | G,,G,G,,G, B,,B,B,,B, | %41
 A,,A,A,,A, A,,A,A,,A, | C,CC,C C,CC,C | G,,G,G,,G, G,,G,G,,G, | %44
 D,/D/D,/D/ D,/D/D,/D/ D,/D/D,/D/ D,/D/D,/D/ ||[K:C]!ped! [F,,C,F,]8 | %46
 F,,A,,C,F,- F,C,A,,F,,!ped-up! |!ped! [A,,E,A,]2 A,,E,- E,A,, E,2!ped-up! | %48
!ped! [G,,D,G,]2 G,,D,- D,G,, D,2!ped-up! |!ped! [F,,C,F,]8 | F,,A,,C,F,- F,C,A,,F,,!ped-up! | %51
!ped! [A,,E,A,]2 A,,E,- E,A,, E,2!ped-up! |!ped! [G,,D,G,]2 G,,D,- D,G,, D,2!ped-up! | %53
!ped! [F,,C,F,]8 | F,,A,,C,F,- F,C,A,,F,,!ped-up! |!ped! [A,,E,A,]2 A,,E,- E,A,, E,2!ped-up! | %56
!ped! [G,,D,G,]2 G,,D,- D,G,, D,2!ped-up! |!ped! F,,A,,C,F,- F,4!ped-up! | %58
!ped! C,,E,,G,,C,- C,4!ped-up! |!ped! A,,C,E,A,- A,4!ped-up! |!ped! G,,B,,D,G,- G,4!ped-up! | %61
 [F,,A,,C,F,]8 | [C,E,G,C]8 |[K:treble]!8va(! [ac'a']8 | [gbg']8!8va)! || %65
[K:bass]!ped! [F,,,F,,]8- | [F,,,F,,]8 | [F,,,F,,]8- | [F,,,F,,]8!ped-up! |!ped! [A,,,A,,]8- | %70
 [A,,,A,,]8 | [A,,,A,,]8- | [A,,,A,,]8!ped-up! |!ped! [F,,,F,,]8- | [F,,,F,,-]8 | [F,,D,]8 | %76
 [F,,D,]8!ped-up! |!ped! [A,,,-A,,]8 | [A,,,A,,]8 | [A,,,-G,,]8 | [A,,,G,,]8!ped-up! | %81
!ped! [F,,,F,,]3 A,, C,G, G,2!ped-up! |!ped! [F,,,F,,]3 A,, C,G, G,2!ped-up! | %83
!ped! [A,,,A,,]3 A,, C,G, G,2!ped-up! |!ped! [G,,,G,,]3 A,, C,G, G,2!ped-up! | %85
!ped! [F,,,F,,]3 A,, C,G, G,2!ped-up! |!ped! [F,,,F,,]3 A,, C,G, G,2!ped-up! | %87
!ped! [A,,,A,,]3 A,, C,G, G,2!ped-up! |!ped! [G,,,G,,]3 A,, C,G, G,2!ped-up! | %89
!ped! [F,,,F,,]3 A,, C,G, G,2!ped-up! |!ped! [F,,,F,,]3 A,, C,G, G,2!ped-up! | %91
!ped! [A,,,A,,]3 A,, C,G, G,2!ped-up! |!ped! [G,,,G,,]3 A,, C,G, G,2!ped-up! | %93
!ped! [F,,,F,,]3 A,, C,G, G,2!ped-up! |!ped! [C,,C,]3 A,, C,G, G,2!ped-up! | %95
!ped! [A,,,A,,]3 A,, C,G, G,2!ped-up! |!ped! [G,,,G,,]3 A,, C,G, G,2!ped-up! |: %97
!ped! F,,,F,,F,,,F,, F,,,F,,F,,,F,,!ped-up! |!ped! F,,,F,,F,,,F,, F,,,F,,F,,,F,,!ped-up! | %99
!ped! F,,,D,,F,,,D,, F,,,D,,F,,,D,,!ped-up! |!ped! F,,,E,,F,,,E,, F,,,E,,F,,,E,,!ped-up! | %101
!ped! A,,,A,,A,,,A,, A,,,A,,A,,,A,,!ped-up! |!ped! A,,,A,,A,,,A,, A,,,A,,A,,,A,,!ped-up! | %103
!ped! A,,,G,,A,,,G,, A,,,G,,A,,,G,,!ped-up! |1!ped! A,,,G,,A,,,G,, A,,,G,,A,,,G,,!ped-up! :|2 %105
!ped! A,,,G,,A,,,G,, A,,,G,,A,,,G,,!ped-up! ||!ped! F,,,F,,F,,,F,, F,,,F,,F,,,F,,!ped-up! | %107
!ped! F,,,F,,F,,,F,, F,,,F,,F,,,F,,!ped-up! |!ped! F,,,F,,F,,,F,, F,,,F,,F,,,F,,!ped-up! | %109
!ped! F,,,F,,F,,,F,, F,,,F,,F,,,F,,!ped-up! |!ped! F,,,F,,F,,,F,, F,,,F,,F,,,F,,!ped-up! | %111
!ped! F,,,F,,F,,,F,, F,,,F,,F,,,F,,!ped-up! | %112
!ped! [F,,,F,,][F,,,F,,][F,,,F,,][F,,,F,,] [F,,,F,,][F,,,F,,][F,,,F,,][F,,,F,,]!ped-up! | %113
 !//![F,,,F,,]8 |:!ped! F,,,F,,A,,C, F,4!ped-up! |!ped! F,,,F,,A,,C, A,4!ped-up! | %116
!ped! F,,,F,,A,,C, D,4!ped-up! |!ped! F,,,F,,A,,C, E,4!ped-up! |!ped! A,,,A,,C,E, A,4!ped-up! | %119
!ped! A,,,A,,C,E, A,4!ped-up! |!ped! A,,,A,,C,E, G,4!ped-up! |!ped! A,,,A,,C,E, G,4!ped-up! :: %122
!ped! [F,,,F,,]2 F,,,F,, [F,,,F,,]2 F,,,F,,!ped-up! | %123
!ped! [F,,,F,,]2 F,,,F,, [F,,,F,,]2 F,,,F,,!ped-up! | %124
!ped! [F,,,F,,]2 F,,,D,, [F,,,F,,]2 F,,,D,,!ped-up! | %125
!ped! [F,,,F,,]2 F,,,E,, [F,,,F,,]2 F,,,E,,!ped-up! | %126
!ped! [A,,,A,,]2 A,,,A,, [A,,,A,,]2 A,,,A,,!ped-up! | %127
!ped! [A,,,A,,]2 A,,,A,, [A,,,A,,]2 A,,,A,,!ped-up! | %128
!ped! [A,,,A,,]2 A,,,G,, [A,,,A,,]2 A,,,G,,!ped-up! | %129
!ped! [A,,,A,,]2 A,,,G,, [A,,,A,,]2 A,,,G,,!ped-up! :|!ped! F,,,F,,A,,C, F,4!ped-up! | %131
!ped! F,,,F,,A,,C, A,4!ped-up! |!ped! F,,,F,,A,,C, D,4!ped-up! |!ped! F,,,F,,A,,C, E,4!ped-up! | %134
!ped! A,,,A,,C,E, A,4!ped-up! |!ped! A,,,A,,C,E, A,4!ped-up! |!ped! A,,,A,,C,E, G,4!ped-up! | %137
!ped! A,,,A,,C,E, G,4!ped-up! |!ped! F,,,F,,A,,C, F,4!ped-up! |!ped! F,,,F,,A,,C, A,4!ped-up! | %140
!ped! F,,,F,,A,,C, D,4!ped-up! |!ped! F,,,F,,A,,C, E,4!ped-up! |!ped! A,,,A,,C,E, A,4!ped-up! | %143
!ped! A,,,A,,C,E, A,4!ped-up! |!ped! A,,,A,,C,E, G,4!ped-up! |!ped! A,,,A,,C,E, G,4!ped-up! | %146
 [A,,,A,,]8- | [A,,,A,,]8 | z8 |] %149

